X: 566
T: Dong bing
L: 1/8
M: 2/4
K: G
B d e e [I:setbarnb 1]| 
g ed2 | 
B d e e | 
d4 | 
B d e e | 
g e d d | 
g e d B | 
A2d2 | 
AG2E | 
E2z2 | 
d B A d | 
G2z2 | 
d B A d | 
G2d2 | 
A A A E | 
D4 |]

@@@ Tune index: 9440
